X: 1
T: the Well Tuned Piano
C: Donald J Bartlett
N: \251 1975 Donald J. Bartlett, Mississauga, Ontario
S: printed MS of unknown origin, rcvd from Lydia Hedges 2011-2-28
R: reel
Z: 2011 John Chambers <jc:trillian.mit.edu>
M: C|
L: 1/8
K: D
"A7"FG | "D"A2fe "G"d2cB | "D"ABAF Adcd | "D"A2fa "E(m)"gfed | "A7"c2e2 e2FG |
y4 | "D"A2fe "G"d2cB | "D"ABAF Adcd | "E7"B2ed "A7"c2Bc | "G"e2d2 "D"d2 :|
"A7"FG | "D"A2fa Aafa | "A7"A2ea Aaea | "Bm"d2cd "E7"gfed | "A"c2e2 e2FG |
y4 | "D"A2fa Aafa | "A7"A2ea Aaea | "Em"gfed "A7"c2Bc | "G"e2d2 "D"d2 |]
"A7"FG | "D"A2fa Aafa | "A7"A2ea Aaea | "Bm"d2cd "E7"gfed | "A"c2e2 e2"(D)"dc |
y4 | "G"B2cd "D"Adcd | "A7"GBAG "D"F2a2 | "Em"gfed "A7"c2Bc | "G"e2d2 "D"d2 |]
